X:5
T:Ocean Level - Flowing Waves
C:AI Composer
M:6/8
L:1/8
Q:3/8=132
K:F
V:1 name="Flowing"
|: "F"f2a c'2a | f2c A2F | "Bb"d2f b2f | d2B F2D |
   "C"e2g c'2g | e2c G2E | "F"f2a c'2f | f3 f3 :|
|: "Dm"a2f d2A | F2D A,2D | "Gm"g2d B2G | D2B, G,2B, |
   "C"g2e c2G | E2C G,2C | "F"f2c A2F | F3 F3 :|
|: "F"c'3 a3 | f2a c'2f' | "Bb"d'3 b3 | f2b d'2f' |
   "Gm"d'2b g2d | "C"c'2g e2c | "F"a2f c2A | F3 F3 :|

